X:1
T:Title
%%score { ( 1 3 ) | ( 2 4 ) }
L:1/8
M:3/4
K:Bb
V:1 treble nm="Grand Piano"
V:3 treble 
V:2 bass 
V:4 bass 
V:1
 z2 z2[Q:1/4=86] [DF]>[EG] | [DF]3 [FB] [Fd]>[Ec] | [DB]4 [FB][FA] | [EG]3 [GB] [FA][EG] | %4
[M:2/4] [DF]4 |[M:1/4] [DF]>[EG] |[M:3/4] [DF]3 [FB] d>c | c4 [Fd][DFc] | [FA]3 [GB] [=EG][EA] | %9
[M:2/4] F4 |[M:1/4] [DF]>[EG] |[M:3/4] z B, B,[Fd] [Ge]>[Fd] | c4 z2 | c3 F d>c | %14
[M:2/4] [DFB]2 [DF]2 |[M:1/4] [DF]>[EG] |[M:3/4] z B, B,[B,FB] cd | e-[B,Ge-] [B,Ge]2 [FGd][EGc] | %18
 [DFB]3 [EFc] [DFB][CEA] |[M:2/4] [B,DB]4 |] %20
V:2
 z2 z2 [B,,B,]>[B,,B,] | [B,,B,]3 [D,B,] [F,B,]>[F,A,] | [B,,B,]4 [D,B,][D,B,] | %3
 [E,B,]3 [E,B,] [E,B,][E,B,] |[M:2/4] [B,,B,]4 |[M:1/4] [B,,B,]>[B,,B,] | %6
[M:3/4] [B,,B,]3 [D,B,] [F,B,F]>[F,A,F] | [F,A,F]4 [B,,B,]B,, | [C,C]3 [C,C] [C,C][C,B,] | %9
[M:2/4] [F,A,]4 |[M:1/4] [B,,B,]>[B,,B,] |[M:3/4] [B,,B,]B,, B,,[B,,B,] [B,,B,]>[B,,B,] | %12
 .[A,F]2 z2 z2 | [F,A,F]3 [F,A,E] [F,B,F]>[F,EF] |[M:2/4] z2 B,2 |[M:1/4] [B,,B,]>[B,,B,] | %16
[M:3/4] [B,,B,]B,, B,,D,[K:treble] [F,A,F][B,_A] | [E,B,]E, E,2 E,E, | F,3 F, F,F, |[M:2/4] B,,4 |] %20
V:3
 x6 | x6 | x6 | x6 |[M:2/4] x4 |[M:1/4] x2 |[M:3/4] x6 | x6 | x6 |[M:2/4] z2 E2 |[M:1/4] x2 | %11
[M:3/4] [DF]4 z2 | z F F2 c>d | x6 |[M:2/4] x4 |[M:1/4] x2 |[M:3/4] [DF]4 z2 | .G2 z2 z2 | x6 | %19
[M:2/4] x4 |] %20
V:4
 x6 | x6 | x6 | x6 |[M:2/4] x4 |[M:1/4] x2 |[M:3/4] x6 | x6 | x6 |[M:2/4] x4 |[M:1/4] x2 | %11
[M:3/4] x6 | F,-[F,-A,] [F,A,]2 [F,A,F]>[F,B,F] | x6 |[M:2/4] B,,4 |[M:1/4] x2 | %16
[M:3/4] x4[K:treble] x2 | x6 | x6 |[M:2/4] x4 |] %20

